icons/smiley-frustrated-24.svg

<svg width="24" height="24" viewBox="0 0 24 24" fill="none" xmlns="http://www.w3.org/2000/svg">
<path d="M12 1C18.0751 1 23 5.92487 23 12C23 18.0751 18.0751 23 12 23C5.92487 23 1 18.0751 1 12C1 5.92487 5.92487 1 12 1ZM12 2.5C6.75329 2.5 2.5 6.75329 2.5 12C2.5 17.2467 6.75329 21.5 12 21.5C17.2467 21.5 21.5 17.2467 21.5 12C21.5 6.75329 17.2467 2.5 12 2.5ZM12 12.75C15.487 12.75 16.9346 15.5217 17.2275 16.6934C17.2835 16.9173 17.2329 17.1549 17.0908 17.3369C16.9487 17.5187 16.7308 17.625 16.5 17.625H7.5C7.26921 17.625 7.05132 17.5187 6.90918 17.3369C6.7671 17.1549 6.71654 16.9173 6.77246 16.6934C7.06538 15.5217 8.51301 12.75 12 12.75ZM12 14.25C10.2147 14.25 9.16825 15.2497 8.63672 16.125H15.3633C14.8317 15.2497 13.7853 14.25 12 14.25ZM5.79785 7.73633C5.94341 7.3487 6.37594 7.15245 6.76367 7.29785L10.7637 8.79785C11.0562 8.90771 11.25 9.18748 11.25 9.5C11.25 9.81252 11.0562 10.0923 10.7637 10.2021L6.76367 11.7021C6.37594 11.8475 5.94341 11.6513 5.79785 11.2637C5.65245 10.8759 5.8487 10.4434 6.23633 10.2979L8.36328 9.5L6.23633 8.70215C5.8487 8.55659 5.65245 8.12406 5.79785 7.73633ZM17.2363 7.29785C17.6241 7.15245 18.0566 7.3487 18.2021 7.73633C18.3475 8.12406 18.1513 8.55659 17.7637 8.70215L15.6367 9.5L17.7637 10.2979C18.1513 10.4434 18.3475 10.8759 18.2021 11.2637C18.0566 11.6513 17.6241 11.8475 17.2363 11.7021L13.2363 10.2021C12.9438 10.0923 12.75 9.81252 12.75 9.5C12.75 9.18748 12.9438 8.90771 13.2363 8.79785L17.2363 7.29785Z" fill="black"/>
</svg>

<svg xmlns="http://www.w3.org/2000/svg" width="24" height="24" viewBox="0 0 24 24"><path d="M12 1c6.075 0 11 4.925 11 11s-4.925 11-11 11S1 18.075 1 12 5.925 1 12 1Zm0 1.5A9.5 9.5 0 0 0 2.5 12a9.5 9.5 0 0 0 9.5 9.5 9.5 9.5 0 0 0 9.5-9.5A9.5 9.5 0 0 0 12 2.5Zm0 10.25c3.487 0 4.935 2.772 5.227 3.943a.748.748 0 0 1-.727.932h-9a.75.75 0 0 1-.728-.932C7.065 15.522 8.513 12.75 12 12.75Zm0 1.5c-1.785 0-2.832 1-3.363 1.875h6.726c-.531-.875-1.578-1.875-3.363-1.875ZM5.798 7.736a.75.75 0 0 1 .966-.438l4 1.5a.75.75 0 0 1 0 1.404l-4 1.5a.75.75 0 0 1-.528-1.404L8.363 9.5l-2.127-.798a.75.75 0 0 1-.438-.966Zm11.438-.438a.75.75 0 0 1 .528 1.404l-2.127.798 2.127.798a.75.75 0 0 1-.528 1.404l-4-1.5a.75.75 0 0 1 0-1.404l4-1.5Z"/></svg>
